packages/core/src/svgs/dext.svg

<svg width="24" height="24" viewBox="0 0 24 24" fill="none" xmlns="http://www.w3.org/2000/svg">
<g clip-path="url(#clip0_31_9161)">
<path d="M0 0H24V24H0V0Z" fill="#F0F3FA"/>
<path d="M10.6804 5.79019C10.8591 6.30276 11.3442 6.69962 11.934 6.69962C12.534 6.69962 13.0242 6.28819 13.1952 5.76405C13.308 5.41819 13.6272 5.0599 13.9774 5.16019C14.4938 5.30848 14.9862 5.51333 15.4474 5.76748C15.7615 5.94062 15.7388 6.40519 15.5755 6.72405C15.4485 6.97259 15.4031 7.25484 15.4457 7.53067C15.4883 7.80651 15.6167 8.06192 15.8127 8.2606C16.0088 8.45928 16.2624 8.59113 16.5377 8.63743C16.8129 8.68372 17.0957 8.6421 17.346 8.51847C17.6674 8.3599 18.1332 8.34448 18.3017 8.66033C18.5236 9.07579 18.7035 9.51239 18.8387 9.96362C18.9428 10.312 18.5871 10.6348 18.2421 10.7509C17.7231 10.9253 17.3181 11.4122 17.3181 12.0066C17.3181 12.6006 17.7231 13.0875 18.2421 13.2623C18.5875 13.378 18.9428 13.7008 18.8387 14.0492C18.6866 14.5569 18.478 15.046 18.2168 15.5072C18.0441 15.8115 17.5962 15.7943 17.2825 15.6375C17.0363 15.5139 16.7578 15.47 16.4855 15.5119C16.2132 15.5537 15.9607 15.6792 15.7629 15.8709C15.5651 16.0627 15.4319 16.3112 15.3816 16.5821C15.3314 16.8529 15.3667 17.1327 15.4825 17.3826C15.6308 17.6998 15.6355 18.148 15.3252 18.3109C14.9138 18.5278 14.478 18.7052 14.0237 18.8393C13.6855 18.9388 13.3722 18.6092 13.2531 18.2779C13.0701 17.7713 12.5858 17.383 12.0038 17.383C11.4218 17.383 10.9371 17.7713 10.7545 18.2779C10.6345 18.6092 10.3217 18.9388 9.98353 18.8393C9.46454 18.6865 8.96472 18.4749 8.49382 18.2085C8.20925 18.0473 8.20325 17.6449 8.33139 17.344C8.43442 17.1018 8.46312 16.8344 8.41382 16.5758C8.36453 16.3172 8.23948 16.0791 8.05455 15.8917C7.86962 15.7044 7.63317 15.5762 7.37524 15.5235C7.11731 15.4709 6.84954 15.496 6.60596 15.5959C6.30296 15.7202 5.9001 15.7082 5.74282 15.4215C5.49937 14.9776 5.30425 14.509 5.16082 14.0235C5.06139 13.6858 5.39139 13.3733 5.7231 13.2542C6.23053 13.0716 6.61882 12.5878 6.61882 12.0066C6.61882 11.425 6.23053 10.9416 5.7231 10.759C5.39139 10.6399 5.06139 10.327 5.16082 9.98933C5.29063 9.54981 5.46287 9.12395 5.6751 8.71776C5.83367 8.41476 6.26567 8.40919 6.57939 8.54547C6.74647 8.61778 6.92662 8.65498 7.10867 8.65476C7.33372 8.65484 7.55509 8.59771 7.75199 8.48875C7.9489 8.37979 8.11487 8.22256 8.23433 8.03185C8.3538 7.84113 8.42282 7.62318 8.43492 7.39846C8.44703 7.17374 8.40182 6.94964 8.30353 6.74719C8.15353 6.4399 8.14025 6.00876 8.43639 5.83733C8.89452 5.57252 9.38083 5.35977 9.88625 5.20305C10.2342 5.09548 10.5608 5.4469 10.6804 5.79019ZM12.0038 16.4059C14.4368 16.4059 16.4095 14.4362 16.4095 12.0066C16.4095 9.57662 14.4368 7.60733 12.0038 7.60733C9.57039 7.60733 7.5981 9.57705 7.5981 12.0066C7.5981 14.4362 9.57039 16.4059 12.0038 16.4059Z" fill="#0B8BB1"/>
<path d="M13.5785 9.05985C13.5957 9.11128 13.6285 9.15608 13.6724 9.18802C13.7162 9.21997 13.7689 9.23748 13.8232 9.23813C13.8783 9.23744 13.9318 9.21939 13.976 9.18653C14.0203 9.15367 14.053 9.10769 14.0696 9.05513C14.0915 8.98742 14.154 8.91756 14.2222 8.93685C14.3229 8.96599 14.4193 9.00628 14.5093 9.05599C14.5706 9.08985 14.5663 9.18028 14.5342 9.24285C14.5091 9.29141 14.5001 9.34665 14.5083 9.40066C14.5165 9.45468 14.5416 9.50472 14.5799 9.54364C14.6183 9.58256 14.668 9.60837 14.7219 9.61739C14.7757 9.6264 14.8311 9.61817 14.88 9.59385C14.943 9.56256 15.0335 9.55956 15.0665 9.62128C15.1093 9.70185 15.1449 9.78713 15.1715 9.87628C15.1916 9.94442 15.1222 10.0074 15.0549 10.0301C15.003 10.0472 14.9578 10.08 14.9255 10.1241C14.8933 10.1681 14.8755 10.2211 14.8749 10.2757C14.8749 10.3918 14.9537 10.487 15.0549 10.5213C15.1222 10.544 15.192 10.607 15.1715 10.6751C15.1415 10.7754 15.1003 10.871 15.0502 10.9601C15.0163 11.0197 14.9289 11.0158 14.8676 10.9858C14.8195 10.9617 14.765 10.9531 14.7118 10.9613C14.6586 10.9695 14.6093 10.994 14.5706 11.0315C14.532 11.069 14.506 11.1176 14.4962 11.1706C14.4865 11.2235 14.4934 11.2782 14.5162 11.327C14.5449 11.3891 14.5462 11.4766 14.4853 11.5083C14.4052 11.5511 14.3199 11.5854 14.2312 11.6116C14.1652 11.6313 14.1043 11.5666 14.0812 11.5018C14.0633 11.4512 14.0303 11.4072 13.9866 11.3759C13.9429 11.3446 13.8906 11.3275 13.8369 11.327C13.7832 11.3277 13.7311 11.3448 13.6875 11.3761C13.6439 11.4074 13.6109 11.4513 13.593 11.5018C13.5699 11.5666 13.5086 11.6313 13.4426 11.6116C13.3412 11.5817 13.2436 11.5402 13.1516 11.4881C13.0959 11.4568 13.095 11.378 13.1199 11.3193C13.1368 11.2798 13.1436 11.2368 13.1398 11.1941C13.1359 11.1514 13.1215 11.1102 13.0979 11.0745C13.0742 11.0387 13.042 11.0093 13.0042 10.9891C12.9663 10.9688 12.9241 10.9583 12.8812 10.9584C12.8475 10.9584 12.8142 10.9649 12.783 10.9777C12.7239 11.0017 12.645 10.9991 12.6146 10.9434C12.5675 10.8577 12.5289 10.766 12.501 10.67C12.4813 10.604 12.546 10.5427 12.6107 10.5196C12.6614 10.5017 12.7054 10.4687 12.7367 10.425C12.768 10.3813 12.785 10.329 12.7856 10.2753C12.7849 10.2217 12.7677 10.1696 12.7364 10.1261C12.7052 10.0825 12.6613 10.0497 12.6107 10.0318C12.546 10.0083 12.4813 9.94742 12.501 9.88142C12.5263 9.79551 12.5599 9.71227 12.6013 9.63285C12.6322 9.57328 12.717 9.57242 12.7779 9.59856C12.8265 9.6197 12.8804 9.62542 12.9324 9.61497C12.9844 9.60451 13.0319 9.57837 13.0686 9.54008C13.1052 9.50178 13.1293 9.45317 13.1374 9.40079C13.1456 9.34841 13.1376 9.29479 13.1143 9.24713C13.0852 9.18713 13.0826 9.10314 13.1405 9.06928C13.2292 9.01785 13.3239 8.97628 13.4233 8.94542C13.4915 8.92399 13.5553 8.99299 13.5785 9.06028V9.05985ZM13.8347 10.9726C13.9285 10.9758 14.0219 10.9602 14.1095 10.9266C14.1971 10.893 14.277 10.8421 14.3444 10.777C14.4119 10.7118 14.4656 10.6337 14.5022 10.5474C14.5389 10.4611 14.5578 10.3682 14.5578 10.2744C14.5578 10.1806 14.5389 10.0878 14.5022 10.0014C14.4656 9.91511 14.4119 9.83703 14.3444 9.77188C14.277 9.70673 14.1971 9.65583 14.1095 9.62222C14.0219 9.58862 13.9285 9.57299 13.8347 9.57628C13.6538 9.58262 13.4824 9.65895 13.3567 9.78918C13.2309 9.91942 13.1606 10.0934 13.1606 10.2744C13.1606 10.4555 13.2309 10.6294 13.3567 10.7597C13.4824 10.8899 13.6538 10.9662 13.8347 10.9726ZM9.1796 9.96799C9.1969 10.0193 9.22969 10.0639 9.27345 10.0958C9.3172 10.1276 9.36977 10.1451 9.42389 10.1458C9.479 10.1452 9.53248 10.1271 9.57673 10.0942C9.62097 10.0614 9.65372 10.0154 9.67032 9.96285C9.6926 9.89513 9.75474 9.82528 9.82289 9.84499C9.92403 9.87371 10.02 9.91356 10.11 9.96371C10.1713 9.99756 10.167 10.088 10.1349 10.1506C10.1099 10.1991 10.1008 10.2544 10.109 10.3084C10.1172 10.3624 10.1423 10.4124 10.1807 10.4514C10.219 10.4903 10.2687 10.5161 10.3226 10.5251C10.3765 10.5341 10.4318 10.5259 10.4807 10.5016C10.5437 10.4703 10.6346 10.4673 10.6672 10.5294C10.71 10.61 10.7456 10.6948 10.7722 10.784C10.7927 10.8521 10.7229 10.9151 10.6556 10.9383C10.6038 10.9553 10.5586 10.988 10.5263 11.032C10.494 11.0759 10.4763 11.1289 10.4756 11.1834C10.4756 11.2996 10.5545 11.3947 10.6556 11.429C10.7229 11.4517 10.7927 11.5147 10.7722 11.5828C10.7425 11.6821 10.7019 11.7777 10.6509 11.8678C10.617 11.9278 10.5296 11.924 10.4683 11.8936C10.4202 11.8694 10.3658 11.8608 10.3125 11.869C10.2593 11.8772 10.21 11.9017 10.1713 11.9392C10.1327 11.9767 10.1067 12.0253 10.097 12.0783C10.0872 12.1312 10.0942 12.1859 10.1169 12.2347C10.146 12.2968 10.1469 12.3843 10.0865 12.416C10.0059 12.4588 9.9206 12.4931 9.83232 12.5193C9.76632 12.539 9.70503 12.4743 9.68146 12.4096C9.66363 12.3589 9.63068 12.315 9.58706 12.2837C9.54344 12.2525 9.49127 12.2353 9.4376 12.2347C9.38393 12.2353 9.33176 12.2525 9.28814 12.2837C9.24453 12.315 9.21157 12.3589 9.19374 12.4096C9.1706 12.4743 9.10932 12.539 9.04332 12.5193C8.94193 12.4894 8.84429 12.448 8.75232 12.3958C8.6966 12.3646 8.69574 12.2857 8.7206 12.227C8.73751 12.1876 8.74435 12.1445 8.7405 12.1018C8.73666 12.0591 8.72226 12.018 8.69858 11.9822C8.67491 11.9464 8.64271 11.917 8.60489 11.8968C8.56706 11.8765 8.52479 11.866 8.48189 11.8661C8.44823 11.8661 8.41489 11.8727 8.38375 11.8854C8.3246 11.9094 8.24617 11.9068 8.21532 11.8511C8.16817 11.7654 8.1296 11.6737 8.10174 11.5777C8.08246 11.5117 8.14674 11.4508 8.21146 11.4277C8.26215 11.4099 8.30612 11.3768 8.3374 11.3331C8.36869 11.2894 8.38576 11.2372 8.38632 11.1834C8.38576 11.1297 8.36869 11.0774 8.3374 11.0337C8.30612 10.99 8.26215 10.957 8.21146 10.9391C8.14674 10.9164 8.08246 10.8551 8.10174 10.7891C8.12746 10.7021 8.16089 10.619 8.20203 10.5406C8.23289 10.481 8.31774 10.4801 8.3786 10.5067C8.42722 10.5278 8.48115 10.5336 8.53312 10.5231C8.58509 10.5127 8.63261 10.4865 8.66927 10.4482C8.70593 10.4099 8.72997 10.3613 8.73815 10.3089C8.74634 10.2566 8.73827 10.2029 8.71503 10.1553C8.68589 10.0953 8.68332 10.0108 8.74117 9.97742C8.82989 9.92599 8.9246 9.88399 9.02403 9.85313C9.0926 9.83213 9.15603 9.90071 9.1796 9.96799ZM9.43546 11.8803C9.5292 11.8836 9.62264 11.8679 9.71021 11.8343C9.79778 11.8007 9.87769 11.7498 9.94516 11.6847C10.0126 11.6195 10.0663 11.5414 10.103 11.4551C10.1396 11.3688 10.1585 11.2759 10.1585 11.1821C10.1585 11.0883 10.1396 10.9955 10.103 10.9092C10.0663 10.8228 10.0126 10.7447 9.94516 10.6796C9.87769 10.6144 9.79778 10.5635 9.71021 10.5299C9.62264 10.4963 9.5292 10.4807 9.43546 10.484C9.25453 10.4903 9.08314 10.5667 8.95739 10.6969C8.83163 10.8271 8.76135 11.0011 8.76135 11.1821C8.76135 11.3632 8.83163 11.5371 8.95739 11.6674C9.08314 11.7976 9.25453 11.8739 9.43546 11.8803ZM10.506 13.1103C10.5233 13.1616 10.5561 13.2062 10.5999 13.2381C10.6436 13.2699 10.6962 13.2874 10.7503 13.2881C10.8054 13.2874 10.8589 13.2694 10.9032 13.2365C10.9474 13.2037 10.9802 13.1577 10.9967 13.1051C11.019 13.0374 11.0812 12.9676 11.1493 12.9873C11.2505 13.016 11.3465 13.0558 11.4365 13.106C11.4977 13.1398 11.4935 13.2303 11.4613 13.2928C11.4363 13.3414 11.4272 13.3966 11.4354 13.4507C11.4437 13.5047 11.4687 13.5547 11.5071 13.5936C11.5454 13.6326 11.5951 13.6584 11.649 13.6674C11.7029 13.6764 11.7582 13.6682 11.8072 13.6438C11.8702 13.6126 11.961 13.6096 11.9936 13.6713C12.0365 13.7518 12.072 13.8371 12.0986 13.9263C12.1187 13.9944 12.0497 14.0574 11.982 14.0806C11.9302 14.0975 11.885 14.1303 11.8527 14.1743C11.8204 14.2182 11.8027 14.2712 11.802 14.3257C11.8026 14.3803 11.8203 14.4334 11.8526 14.4774C11.8849 14.5214 11.9301 14.5543 11.982 14.5713C12.0497 14.594 12.1192 14.657 12.0986 14.7251C12.069 14.8244 12.0283 14.92 11.9773 15.0101C11.9435 15.0701 11.856 15.0663 11.7947 15.0358C11.7466 15.0114 11.6921 15.0026 11.6387 15.0107C11.5854 15.0187 11.5359 15.0433 11.4972 15.0809C11.4584 15.1185 11.4324 15.1672 11.4228 15.2203C11.4131 15.2734 11.4203 15.3282 11.4433 15.377C11.4725 15.4391 11.4733 15.5266 11.4125 15.5583C11.3323 15.6011 11.247 15.6354 11.1583 15.6616C11.0923 15.6813 11.0315 15.6166 11.0083 15.5518C10.9905 15.5012 10.9574 15.4572 10.9137 15.4259C10.87 15.3946 10.8178 15.3775 10.764 15.377C10.7104 15.3776 10.6582 15.3948 10.6146 15.426C10.571 15.4573 10.538 15.5012 10.5202 15.5518C10.497 15.6166 10.4357 15.6813 10.3697 15.6616C10.2683 15.6317 10.1707 15.5903 10.0787 15.5381C10.023 15.5068 10.0222 15.428 10.047 15.3693C10.0639 15.3298 10.0708 15.2868 10.0669 15.2441C10.0631 15.2014 10.0487 15.1602 10.025 15.1245C10.0013 15.0887 9.96914 15.0593 9.93132 15.0391C9.89349 15.0188 9.85122 15.0083 9.80832 15.0084C9.77466 15.0084 9.74132 15.015 9.71017 15.0277C9.65103 15.0517 9.5726 15.0491 9.54174 14.9934C9.4946 14.9077 9.45603 14.816 9.42817 14.72C9.40889 14.654 9.47317 14.5927 9.53789 14.57C9.58858 14.5521 9.63255 14.5191 9.66383 14.4754C9.69511 14.4317 9.71219 14.3794 9.71275 14.3257C9.71219 14.272 9.69511 14.2197 9.66383 14.176C9.63255 14.1323 9.58858 14.0993 9.53789 14.0814C9.47317 14.0583 9.40889 13.9974 9.42817 13.9314C9.45348 13.8455 9.48707 13.7623 9.52846 13.6828C9.55932 13.6233 9.64417 13.6224 9.70503 13.649C9.75365 13.6701 9.80758 13.6759 9.85955 13.6654C9.91152 13.6549 9.95904 13.6288 9.9957 13.5905C10.0324 13.5522 10.0564 13.5036 10.0646 13.4512C10.0728 13.3988 10.0647 13.3452 10.0415 13.2976C10.0123 13.2376 10.0097 13.1531 10.0676 13.1197C10.157 13.0679 10.2518 13.0262 10.3505 12.9954C10.419 12.9744 10.4825 13.043 10.506 13.1103ZM10.7619 15.0226C10.8556 15.0258 10.9491 15.0102 11.0366 14.9766C11.1242 14.943 11.2041 14.8921 11.2716 14.827C11.3391 14.7618 11.3927 14.6837 11.4294 14.5974C11.466 14.5111 11.4849 14.4182 11.4849 14.3244C11.4849 14.2306 11.466 14.1378 11.4294 14.0514C11.3927 13.9651 11.3391 13.887 11.2716 13.8219C11.2041 13.7567 11.1242 13.7058 11.0366 13.6722C10.9491 13.6386 10.8556 13.623 10.7619 13.6263C10.581 13.6326 10.4096 13.7089 10.2838 13.8392C10.1581 13.9694 10.0878 14.1434 10.0878 14.3244C10.0878 14.5055 10.1581 14.6794 10.2838 14.8097C10.4096 14.9399 10.581 15.0162 10.7619 15.0226Z" fill="#888888"/>
<path d="M12.3025 10.608L11.0108 10.8874L10.9808 10.7511L12.273 10.4717L12.3025 10.608ZM10.1301 12.9454L9.95569 12.5961L10.0804 12.5335L10.2553 12.8828L10.1301 12.9454ZM12.9711 11.49L11.6798 13.1661L11.5688 13.0808L12.8605 11.4051L12.9711 11.4904V11.49Z" fill="#0B8BB1"/>
</g>
<defs>
<clipPath id="clip0_31_9161">
<rect width="24" height="24" fill="white"/>
</clipPath>
</defs>
</svg>

<svg xmlns="http://www.w3.org/2000/svg" width="24" height="24" fill="none" viewBox="0 0 24 24"><g clip-path="url(#a)"><path fill="#F0F3FA" d="M0 0h24v24H0z"/><path fill="#0B8BB1" d="M10.68 5.79c.18.513.664.91 1.254.91.6 0 1.09-.412 1.261-.936.113-.346.432-.704.782-.604a7 7 0 0 1 1.47.607c.315.174.292.638.129.957a1.327 1.327 0 0 0 1.77 1.794c.321-.158.787-.174.956.142q.333.625.537 1.304c.104.348-.252.67-.597.787-.519.174-.924.661-.924 1.256 0 .594.405 1.08.924 1.255.345.116.7.439.597.787-.152.508-.361.997-.622 1.458-.173.305-.62.287-.934.13a1.327 1.327 0 0 0-1.8 1.746c.148.317.152.765-.158.928a7 7 0 0 1-1.301.528c-.338.1-.652-.23-.77-.561a1.34 1.34 0 0 0-1.25-.895c-.582 0-1.067.388-1.25.895-.12.331-.432.66-.77.561a7 7 0 0 1-1.49-.63c-.285-.162-.29-.564-.163-.865a1.327 1.327 0 0 0-1.725-1.748c-.303.124-.706.112-.863-.175a7 7 0 0 1-.582-1.397c-.1-.338.23-.65.562-.77a1.34 1.34 0 0 0 .896-1.247 1.34 1.34 0 0 0-.896-1.248c-.332-.12-.662-.432-.562-.77q.195-.661.514-1.271c.159-.303.59-.309.904-.173a1.329 1.329 0 0 0 1.725-1.798c-.15-.307-.164-.738.132-.91a7 7 0 0 1 1.45-.634c.348-.108.675.244.794.587m1.324 10.616a4.403 4.403 0 0 0 4.406-4.4c0-2.43-1.973-4.399-4.406-4.399a4.4 4.4 0 0 0-4.406 4.4c0 2.43 1.972 4.399 4.406 4.399"/><path fill="#888" d="M13.579 9.06a.26.26 0 0 0 .244.178.26.26 0 0 0 .247-.183c.021-.068.084-.137.152-.118q.151.044.287.119c.062.034.057.124.025.187a.259.259 0 0 0 .346.35c.063-.03.153-.033.186.028q.065.12.105.255c.02.068-.049.131-.116.154a.26.26 0 0 0-.18.246c0 .116.079.211.18.245.067.023.137.086.117.154q-.046.15-.122.285c-.034.06-.121.056-.182.026a.26.26 0 0 0-.352.341c.029.062.03.15-.03.181a1.4 1.4 0 0 1-.255.104c-.066.02-.127-.045-.15-.11a.26.26 0 0 0-.244-.175.26.26 0 0 0-.244.175c-.023.065-.084.13-.15.11a1.4 1.4 0 0 1-.291-.124c-.056-.031-.057-.11-.032-.169a.26.26 0 0 0-.337-.341c-.06.024-.138.021-.168-.035a1.4 1.4 0 0 1-.114-.273c-.02-.066.045-.127.11-.15a.26.26 0 0 0 .175-.245.26.26 0 0 0-.175-.243c-.065-.024-.13-.085-.11-.15q.038-.13.1-.25c.031-.059.116-.06.177-.033a.26.26 0 0 0 .336-.352c-.029-.06-.031-.144.026-.178q.135-.077.283-.124c.069-.021.132.048.155.115m.256 1.913a.7.7 0 0 0 .667-.972.698.698 0 1 0-.667.972M9.18 9.968a.26.26 0 0 0 .244.178.26.26 0 0 0 .246-.183c.023-.068.085-.138.153-.118q.152.044.287.119c.061.034.057.124.025.187a.26.26 0 0 0 .346.35c.063-.03.154-.034.186.028q.065.121.105.255c.02.068-.05.131-.116.154a.26.26 0 0 0-.18.245c0 .117.079.212.18.246.067.023.137.086.116.154q-.045.15-.121.285c-.034.06-.121.056-.183.026a.259.259 0 0 0-.351.34c.029.063.03.15-.03.182q-.121.064-.255.103c-.066.02-.127-.045-.15-.11a.26.26 0 0 0-.244-.174.26.26 0 0 0-.244.175c-.023.064-.085.129-.15.11a1.4 1.4 0 0 1-.292-.124c-.055-.031-.056-.11-.031-.169a.259.259 0 0 0-.337-.342c-.06.024-.138.022-.169-.034a1.4 1.4 0 0 1-.113-.273c-.02-.066.045-.127.11-.15a.26.26 0 0 0 .174-.245.26.26 0 0 0-.175-.244c-.064-.023-.129-.084-.11-.15q.04-.13.101-.248c.03-.06.116-.06.177-.034a.26.26 0 0 0 .336-.352c-.03-.06-.032-.144.026-.178a1.4 1.4 0 0 1 .283-.124c.069-.02.132.048.156.115m.255 1.912a.698.698 0 1 0 .05-1.396.698.698 0 0 0-.05 1.396m1.071 1.23a.26.26 0 0 0 .244.178.26.26 0 0 0 .247-.183c.022-.068.084-.137.152-.118q.153.044.288.119c.06.034.056.124.024.187a.26.26 0 0 0 .346.35c.063-.03.154-.033.187.028q.064.12.105.255c.02.068-.05.131-.117.155a.26.26 0 0 0-.18.245.26.26 0 0 0 .18.245c.068.023.137.086.117.154q-.044.15-.122.285c-.034.06-.121.056-.182.026a.259.259 0 0 0-.352.341c.03.062.03.15-.03.181q-.12.064-.255.104c-.066.02-.127-.045-.15-.11a.26.26 0 0 0-.244-.175.26.26 0 0 0-.244.175c-.023.065-.084.13-.15.11a1.4 1.4 0 0 1-.291-.124c-.056-.031-.057-.11-.032-.169a.259.259 0 0 0-.337-.341c-.059.024-.137.021-.168-.035a1.4 1.4 0 0 1-.114-.273c-.02-.066.045-.127.11-.15a.26.26 0 0 0 .175-.244.26.26 0 0 0-.175-.245c-.065-.023-.13-.084-.11-.15q.039-.129.1-.248c.031-.06.116-.06.177-.034a.26.26 0 0 0 .336-.351c-.029-.06-.031-.145.027-.178a1.4 1.4 0 0 1 .283-.125c.068-.02.131.048.155.115m.256 1.913a.7.7 0 0 0 .275-1.35.698.698 0 1 0-.275 1.35"/><path fill="#0B8BB1" d="m12.303 10.608-1.292.28-.03-.137 1.292-.28zm-2.173 2.337-.174-.349.124-.062.175.349zm2.841-1.455-1.291 1.676-.111-.085 1.291-1.676z"/></g><defs><clipPath id="a"><path fill="#fff" d="M0 0h24v24H0z"/></clipPath></defs></svg>
